assets/Keycap asterisk/Flat/keycap_asterisk_flat.svg

<svg width="32" height="32" viewBox="0 0 32 32" fill="none" xmlns="http://www.w3.org/2000/svg">
<path d="M2 6C2 3.79086 3.79086 2 6 2H26C28.2091 2 30 3.79086 30 6V26C30 28.2091 28.2091 30 26 30H6C3.79086 30 2 28.2091 2 26V6Z" fill="#00A6ED"/>
<path d="M16.0222 7.75C16.9887 7.75 17.7722 8.5335 17.7722 9.5V12.9561L20.7541 11.2345C21.5911 10.7512 22.6614 11.038 23.1447 11.875C23.6279 12.712 23.3411 13.7823 22.5041 14.2656L19.5 16L22.5042 17.7345C23.3412 18.2177 23.628 19.288 23.1448 20.125C22.6615 20.962 21.5912 21.2488 20.7542 20.7656L17.7722 19.0439V22.5C17.7722 23.4665 16.9887 24.25 16.0222 24.25C15.0557 24.25 14.2722 23.4665 14.2722 22.5V19.0182L11.2458 20.7656C10.4088 21.2488 9.33848 20.962 8.85523 20.125C8.37198 19.288 8.65876 18.2177 9.49578 17.7345L12.5 16L9.49589 14.2656C8.65888 13.7823 8.37209 12.712 8.85534 11.875C9.33859 11.038 10.4089 10.7512 11.2459 11.2345L14.2722 12.9817V9.5C14.2722 8.5335 15.0557 7.75 16.0222 7.75Z" fill="white"/>
</svg>

<svg xmlns="http://www.w3.org/2000/svg" width="32" height="32" fill="none"><path fill="#00A6ED" d="M2 6a4 4 0 0 1 4-4h20a4 4 0 0 1 4 4v20a4 4 0 0 1-4 4H6a4 4 0 0 1-4-4V6Z"/><path fill="#fff" d="M16.022 7.75c.967 0 1.75.784 1.75 1.75v3.456l2.982-1.721a1.75 1.75 0 1 1 1.75 3.03L19.5 16l3.004 1.735a1.75 1.75 0 1 1-1.75 3.03l-2.982-1.721V22.5a1.75 1.75 0 1 1-3.5 0v-3.482l-3.026 1.748a1.75 1.75 0 0 1-1.75-3.031L12.5 16l-3.004-1.734a1.75 1.75 0 0 1 1.75-3.031l3.026 1.747V9.5c0-.966.784-1.75 1.75-1.75Z"/></svg>
